X: 1
T: Nancy King
C:David A. Kaynor October, 2004
M:C
R:Reel
K:F
|:"F"agfe "Bb"fdcB|"C"ABGE "F"FCC2|"Dm"FGAF "Gm"D2GF|"C"EG"G"cd "C"c2fg|
"F"agfe "Bb"fdcB|"C"ABGE "F"FCFE|FGAF "Gm"G2cB|[1A"C"BGE "F"F2fg:|\
[2A"C"BGE "F"F2AB||
|:"F"c3B AFGA|"Bb"BABG AFAB|"F"c3B Acfa|"C"abge"F"f2fg|
|"F"abge "Bb"fdcB |"C"ABGE "F"FCFE|"Dm"FGAF "Gm"G2cB|[1A"C"BGE "F"F2AB:|\
[2A"C"BGE "F"F4|]

%%sep 1 1 500

